X: 2903
T: Jack's Alive
T: Dusty Bob's Jig
O: Old MS circa 1820
R: jig
B: RSCDS 29-3
Z: 1997 by John Chambers <jc:trillian.mit.edu>
M: 6/8
L: 1/8
K: G
D \
| "G"G2G GAB | "D"A2A "D7"ABc | "G"dBd "D7"cAc | "G"BGB "D7"AFD \
| "G"G2G GAB | "D"A2A ABc | "G"BGB "D7"AFA | "G"GDB, G,B, ||
D \
| "G"G2G GAB | "D"A2A "D7"ABc | "G"dBd "D7"cAc | "G"BGB "D7"AFD \
| "G"G2G GAB | "D"A2A ABc | "G"BGB "D7"AFA | "G"G3 G2 |]
f \
| "G"g2g gag | "D"f2f fgf | "C"e2e efg | "D7"afd def \
| "Em"g2g gag  | "D"f2f fgf | "A7"efe efg | "D"a2z "D7"d2 ||
z \
| "G"gbg gbg | "D"faf faf | "Em"efe "A7"efg | "D7"afd def \
| "G"gbd' Bcd | "Am"ecA ABc | "D7"dcB cBA | "G"G3 G2 |]
